svg/align_center.svg

<svg xmlns="http://www.w3.org/2000/svg" viewBox="0 0 32 32"><path d="M3 7v2h26V7H3zm4 4v2h18v-2H7zm-4 4v2h26v-2H3zm4 4v2h18v-2H7zm-4 4v2h26v-2H3z"/></svg>

<svg xmlns="http://www.w3.org/2000/svg" viewBox="0 0 32 32" enable-background="new 0 0 32 32"><path d="M 3 7 L 3 9 L 29 9 L 29 7 L 3 7 z M 7 11 L 7 13 L 25 13 L 25 11 L 7 11 z M 3 15 L 3 17 L 29 17 L 29 15 L 3 15 z M 7 19 L 7 21 L 25 21 L 25 19 L 7 19 z M 3 23 L 3 25 L 29 25 L 29 23 L 3 23 z" color="#000" overflow="visible" enable-background="accumulate"/></svg>
